X: 59
T:Poll Of Wapping,aka. WI.059
M:C
Q:180
C:Untitled in MS
S:Wm Irwin, Folio MS, c1850. AGG's Transcription
R:Hornpipe
O:England
A:Lake District
Z:vmp.Chris Partington.2005
K:D
fe|dAFA dfed|ecAc egfe|fafd Bged|c2A2A2fe|!
dAFA dfed|ecAc egfe|fafd Bgec|d2d2d2:|!
|:fg|afdf a2gf|gece g2fe|fafd Bged|c2A2A2fg|!
afdf a2gf|gece g2fe|fafd Bgec|d2d2d2:|]
